remix/Weather/cloudy-line.svg

<svg viewBox="0 0 24 24" fill="currentColor" xmlns="http://www.w3.org/2000/svg"><path d="M9.5 6C5.91015 6 3 8.91015 3 12.5C3 16.0899 5.91015 19 9.5 19H16.5C18.9853 19 21 16.9853 21 14.5C21 12.0147 18.9853 10 16.5 10C16.1717 10 15.8516 10.0352 15.5433 10.1019C14.589 7.69894 12.2429 6 9.5 6ZM16.5 21H9.5C4.80558 21 1 17.1944 1 12.5C1 7.80558 4.80558 4 9.5 4C12.5433 4 15.2131 5.59939 16.7146 8.00348C20.2051 8.11671 23 10.982 23 14.5C23 18.0899 20.0899 21 16.5 21Z"/></svg>

<svg viewBox="0 0 24 24" xmlns="http://www.w3.org/2000/svg"><path fill="none" d="M0 0h24v24H0Z"/><path d="M9.5 6v0C5.91 6 3 8.91 3 12.5 3 16.08 5.91 19 9.5 19h7v0c2.48-.01 4.49-2.02 4.49-4.51 -.01-2.49-2.02-4.5-4.51-4.5 -.32 0-.64.03-.95.1v0c-.99-2.48-3.38-4.11-6.05-4.102Zm7 15h-7v0C4.8 20.99 1 17.19 1 12.49c0-4.7 3.8-8.5 8.5-8.5 2.93 0 5.65 1.51 7.21 4v0c3.58.1 6.4 3.1 6.3 6.69 -.11 3.51-3 6.31-6.52 6.3Z"/></svg>
